X:1
T:Préludes - Book I - IV
T:Claude Debussy
T:Les sons et les parfums tournent dans l'air du soir
%%score { ( 1 2 6 ) | ( 3 4 5 7 ) }
L:1/8
Q:1/4=84
M:5/4
K:A
V:1 treble nm="Piano"
V:2 treble 
V:6 treble 
V:3 bass 
V:4 bass 
V:5 bass 
V:7 bass 
V:1
!pp!"^Modéré" z2 ([Ee][Aa]!>(! [_Bde_b]2 [Ee]2)!>)! z2 | z2 ([Ee][Aa][_B_b][ff'] .[cc']2 .[cc']2) | %2
[M:3/4]!pp! z2!>(! (FC)!>)! z2 |!>(! (FC)!>)! z2!>(! (FC)!>)! | z2 (=c!<(!=G- G_B-)!<)! | %5
 B!>(! (.[^CE].[E=G].[G_B].[B^c].[ce])!>)! | z2!<(! (=c=G- G_B!<)! | %7
 c)!>(! (.[=G_B].[Bc].[ce].[e=g].[g_b])!>)! |!p! z2!<(! ([cc'][^d^d'] [dd']2-!<)! | %9
 [dd'][cc'][cc'][^d^d'][dd']!p![cc']) | z2!<(! ([Bb][cc'] [cc']2-!<)! | %11
 [cc'][Bb][Bb][Aa][Bb]!mf![cc']) | z2 ([^D^d][Gg] .[Dd]2) | z!<(! ([Cc][^A,^A][Cc][^D^d]!<)![Ff]) | %14
 z!>(! (.[^D^d].[Gg].[d^d']!8va(!.[gg'].[d'^d'']!>)! |!p! .[g'g'']2)!8va)! z2 z2 | (^dc^DCDc) | %17
!pp! (^dc^DCDc | ^dc^DCDc) | (^dc^DCDc | ^dc^DCDc) | (^dc^DCDc | ^dcC^Dcd) | %23
[M:5/4] z2!pp! [Ee][Aa]!>(! [_B=de_b]2 [Ee]2!>)!!pp! z2 | %24
 z2 ([Ee][Aa]!<(![_B_b][ff']!<)!!>(! .[cc']2!>)! .[cc']2) | %25
!pp! z2!>(! (FC)!>)! z2!>(! ((FC-))!>)! C2 || %26
[K:Ab][K:bass] z2!pp! (E,A,!<(! __B,!<)!F!>(! .C2 !tenuto!!fermata!C2)!>)! | %27
[K:treble]!p! z2!<(! [Ee][Aa][__B__b][ff'] [cc']2!<)!!mf!!<(! !tenuto![gbg'][=d_c'=d']-!<)! | %28
[M:3/4] ([dc'd'].[fbf'].[cf=c'].[eae'].[B=eb].[_d_g_d']) | %29
[M:5/4]!pp! z2 ([FBf][cc'] c'2 (([c_gc']2 [Ed_e]2))) |[M:3/4] z!mf! G F2!p!!<(! [Ee][Aa] | %31
 [de]2!<)! x4 | F4!p!!<(! [Ee][Aa] | [de]2 x4!<)! | %34
 .[=B,=DG].[^G,B,=E].[C,=G,C].[^G,B,E].[B,DG].[G,B,E] | %35
 .[=E,G,C].[^C,E,=A,].[E,G,C].[^G,=B,=E]!<(! !tenuto![^B,^D^G]2 ||[K:A]!mf! F4!<)!!p! ([Ee][Aa] | %37
 [_B_b][ff'] [cc']2) z2 |!mf!!<(! ([_B_b][ff']!<)! [cc']2) z2 | %39
[K:bass]!p! .[A,B,D=F] z .[E,=F,A,=C] z .[A,,B,,D,F,] z |[K:treble]!pp! (C2 c'2 c''2 | %41
[K:bass] [C,C]2!<(! [^A,,^A,]2!<)!!>(! [E,E]2)!>)! |[K:treble]!p! C2 [cc']2 [c'c'']2 | %43
[M:5/4] x x4!p!!<(! f2!<)!!>(! x4!>)! | %44
[K:bass]!pp! z2[K:treble]!<(! [cc'][ff']!<)!!>(! ([^d'^d''][^a^a']) [c'c''][gg'] ([aa'][^e^e'])!>)! | %45
[M:3/4]!pp! (3z ([=a=a'][=e=e']) z2 z2 | (3z ([aa'][ee']) z2 z2 | %47
 (6:4:6z/[I:staff +1] (C/E/[I:staff -1]A/_B/f/) (6:4:6z/[I:staff +1] (C/E/[I:staff -1]A/B/f/) (6:4:6z/[I:staff +1] (C/E/[I:staff -1]A/B/f/-) | %48
[M:5/4]!pp! f3 c'2 x6!>(!!>)! |[M:3/4]!pp! z !tenuto![cac']- [cac']2 z2 | %50
!<(! z2!<)!!pp! !tenuto![cac']2- [cac'] z | z !tenuto![cac']- [cac']2 z2 | z2 [cac']2 z2 |] %53
V:2
 x2 [Ac]2 x6 | x2 [Ac]2 [de]2 x4 |[M:3/4] x6 | x6 | x6 | x6 | x6 | x6 | z2 ^e4 | f2 =g2 f2 | %10
 z2 ^e4 | f2 =g2 f2 | x2 A4 | x =G3 x2 | x4!8va(! x2 | x2!8va)! x4 | x6 | x6 | x6 | x6 | x6 | x6 | %22
 x6 |[M:5/4] ^d2 [Ac]2 x6 | x2 [Ac]2 [de]2 x4 | x10 ||[K:Ab][K:bass] x4 [D,E,_G,]6 | %27
[K:treble] x2 [Ac]2 [de]2 x4 |[M:3/4] x6 |[M:5/4] z2 x =e- (ef x4) | %30
[M:3/4] x2 (F/>E/(7:4:7C/4A,/4E,/4[I:staff +1]C,/4A,,/4E,,/4A,,,/4-) A,,,2 | %31
[I:staff -1] [__B__b][ff'] [cc']2!pp! ([=B,=D=G]2 | (F/>)E/ z x2) [Ac]2 | %33
 [__B__b][ff'] [cc']2!p! .[=B,=DG].[_DF_B] | x6 | x6 ||[K:A] (F/>E/ x z2) [Ac]2 | %37
 [de]2 x2 .[D=F=G=B].[B,^D^E^G] | [de]2 z x .[^D=F=G=B] x |[K:bass] x6 | %40
[K:treble] C/D/F/G/ c/d/f/g/ c'/g/f/d/ |[K:bass] C,/D,/F,/G,/ ^A,,/D,/F,/G,/ E,/G,/F,/D,/ | %42
[K:treble] (C/D/F/G/ c/d/f/g/ c'/g/f/d/ |[M:5/4] x C2 ^A,/)D/F/G/ [cc'][ff'] [^^fc'^^f']2 [cc']2 | %44
[K:bass] (C,/D,/F,/G,/)[K:treble] (f2 [^^fc'^^f']2 [^eb^e']2 [dg=d']2) | %45
[M:3/4] !tenuto![_d=g_d']4 (6:4:6z/[I:staff +1] (C/E/[I:staff -1]A/_B/f/) | %46
 [=c=g=c']4 (6:4:6z/[I:staff +1] =C/E/[I:staff -1]A/_B/f/ | %47
 ([_d=g_d']2 !tenuto![=cg=c']2 !tenuto![dgd']2) |[M:5/4] x4 [cc']2 x5 | %49
[M:3/4]{/[^DF]} .[CE].[CE]- [CE]4 | (.[^DF]/.[CE]/)!>(!([EG]/4[DF]/4.[CE]/)!>)! [CE]4 | %51
{/[^DF]} .[CE].[CE]- [CE]4 | (.[^DF]/.[CE]/)(!tenuto![EG]/4[DF]/4.[CE]/) [CE]4 |] %53
V:3
 z2 [A,C]2 [DE=G]2 E,2 z2 | z2 [A,C]2 [DE=G]2 x4 | %2
[M:3/4] (.[D,=F,_A,_B,]2 .[^D,^F,=A,=B,]2 .[=F,A,B,D]2 | %3
 .[E,=G,A,C]2 .[D,=F,_A,_B,]2 .[^D,^F,=A,=B,]2) |!<(! ([=F,_A,_B,D]2 [A,B,_DE]4)!<)! | %5
 z2 .A,,,2 z2 | ((([=F,_A,_B,D]2 [A,B,_DE]4-))) | [A,B,DE]6 | ([^E,=A,C^E]6 | %9
 [F,A,CF]2 [=G,A,C=G]2 [F,A,CF]2) | (!tenuto![^E,A,C^E]6 | [F,A,CF]2 [=G,A,C=G]2 [F,A,CF]2) | %12
 (!tenuto![=F,B,=F]6 | [E,^A,E]6) | z2[K:treble] (C^Dc^d-) | (dc^DCD[I:staff -1]c) | %16
[I:staff +1] z6 |[K:bass] ([G,B,=F]2 [=F,B,C]2 [G,B,F]2 | [=G,_B,E]4 [E,B,=C][G,B,E]) | %19
 [G,B,=F]2 [=F,B,C]2 [G,B,F]2 | [=G,_B,E]4!<(! ([B,=C=G][G,B,E] | %21
 [E,_B,=C] [=G,B,E]3)!<)!!p!!<(! ([B,C=G][G,B,E] | [E,_B,=C] [=G,B,E]3)!<)!!p! !tenuto!=G2 | %23
[M:5/4] z2 [A,C]2 [DE=G]2 E,2 z2 | z2 [A,C]2 [DE=G]2 x4 | %25
 ([D,=F,_A,_B,]2 [^D,^F,=A,=B,]2 [=F,_A,_B,D]2 [E,=G,=A,C]4) ||[K:Ab] x4 A,,2- A,,4 | %27
 z2 (E,A, __B,F C2[K:treble] [_B,D=GB][_C=DA_c]-) | %28
[M:3/4] ([CDAc].[B,_DGB].[=A,=C_G=A].[_A,_CF_A].[G,B,=E=G].[_G,=A,_E_G]) | %29
[M:5/4][K:bass] z2 ([D,F,B,D][=E,=E] [E,E][F,F] ([_G,=A,=D_G]2 [=G,B,_D=G]2)) | %30
[M:3/4] z2 z2 [A,C]2 | __B,F x4 | x2 x2 E,A, | [DE_G]2 x4 | G,=E,C,E,G,E, | %35
 C,=A,,C,E, !tenuto!^G,2 ||[K:A] x4 E,A, | [DE=G]2 z .[=B,^D^E^G] z2 | %38
 [DE=G]2 z .[=B,^D^E^G] x .[B,DEG] | z .[=F,A,B,D] z .[=C,E,F,A,] z .[=F,,A,,B,,D,] | %40
 C,2 x4[K:treble] |[K:bass] z .G,, z .G,, z .G,, | C,2 x4[K:treble] | %43
[M:5/4][K:bass] x x2 x/ D,/F,/G,/[K:treble] x6 | %44
[K:bass] !tenuto![^A,,,^A,,]2[K:treble] ([^A,CF^A]2 [A,CE^^Fc]2 [G,B,D^EB]2 [^E,G,B,DG]2) | %45
[M:3/4][K:bass] [=E,=G,_B,_D=G]6 | [E,=G,_B,=C=G]6 | ([E,=G,_B,_D=G]2 [E,G,B,=CG]2 [E,G,B,DG]2) | %48
[M:5/4] z2 ([D,F,B,D]([^E,-A,-D^E-] [E,A,DE])[F,F] [G,^A,^D=G]2 [G,B,=D^G]2) x | %49
[M:3/4]{/[F,B,]} [E,A,][E,A,]- [E,A,]4 | %50
!<(! (.[F,B,]/.[E,A,]/)!<)!!>(!(!tenuto![G,C]/4[F,B,]/4.[E,A,]/)!>)! [E,A,]4 | %51
{/[F,B,]} [E,A,].[E,A,]- [E,A,]4 | (.[F,B,]/.[E,A,]/)(!tenuto![G,C]/4[F,B,]/4.[E,A,]/) [E,A,]4 |] %53
V:4
 .A,,,2 E,A, _B,2 E,2 (.E,,2 | .A,,,2) (E,A, _B,F .C2 .C2) | %2
[M:3/4] !tenuto!!courtesy!=A,,,2 z2 z2 | z2 !tenuto!A,,,2 z2 | z2 z2 .A,,,2 | x6 | z2 z2 .A,,,2 | %7
 z2 .A,,,2 z2 | [A,,,A,,]6 | x6 | [A,,,A,,]6 | x6 | z2!p! [A,,,A,,]2- [A,,,A,,] z | %13
 z2 [=A,,,=A,,]2- [A,,,A,,] z | [=F,B,=F]6[K:treble] | x6 | x6 |[K:bass] x6 | x6 | x6 | x6 | x6 | %22
 x6 |[M:5/4] .A,,,2 (E,A, _B,2 E,2) (.E,,2 | .A,,,2) (E,A,_B,F .C2 .C2) | A,,,2 x8 || %26
[K:Ab] (_G,,D,,- D,,4-) D,,4 | x2 [A,C]2 [DE_G]2 x4[K:treble] |[M:3/4] x6 | %29
[M:5/4][K:bass] z2 x [A,D]- [A,D]2 x2 x2 |[M:3/4] x4 E,A, | [DE_G]2 C2 G,2 | %32
 x[I:staff -1] (6:4:6C/4A,/4[I:staff +1]E,/4C,/4A,,/4E,,/4 A,,,2 [A,C]2 | __B,F C2 G,_B, | x6 | %35
 x6 ||[K:A] z[I:staff -1] (6:4:6C/4A,/4[I:staff +1]E,/4C,/4A,,/4E,,/4 !tenuto!A,,,2 [A,C]2 | %37
 _B,F C2 x2 | (_B,F C2) z2 | x6 | C,,/D,/F,/G,/ C/[K:treble]D/F/G/ c/G/F/D/ | %41
[K:bass] [C,,,C,,]2 [^A,,,,^A,,,]2 [E,,,E,,]2 | C,,/D,/F,/G,/ C/[K:treble]D/F/G/ c/G/F/D/ | %43
[M:5/4][K:bass] x C,/D,/[G,,F,]/G,/ x2[K:treble] ([^A,CF^A]2 [A,C^E^^Fc]4) | %44
[K:bass] x2[K:treble] x8 |[M:3/4][K:bass] z2 .A,,,2 z2 | z2 .A,,,2 z2 | x6 |[M:5/4] A,,,2 x9 | %49
[M:3/4] z2 .A,,,,2 z2 | x4 .A,,,,2 | z2 .A,,,,2 z2 | x2 z2 A,,,,2 |] %53
V:5
 x10 | x10 |[M:3/4] x6 | x6 | x6 | x6 | x6 | x6 | x6 | x6 | x6 | x6 | x6 | x6 | x2[K:treble] x4 | %15
 x6 | x6 |[K:bass] x6 | x6 | x6 | x6 | x6 | x6 |[M:5/4] x10 | x10 | x10 ||[K:Ab] x10 | %27
 x8[K:treble] x2 |[M:3/4] x6 |[M:5/4][K:bass] E,,,6 x4 |[M:3/4] x6 | x6 | x6 | x6 | x6 | x6 || %36
[K:A] x6 | x6 | x6 | x6 | C,,,2 C,2[K:treble] C2 |[K:bass] x6 | C,,,2 [C,C]2[K:treble] [Cc]2 | %43
[M:5/4][K:bass] x [C,,,C,,]2 ^A,,2[K:treble] x4 x2 |[K:bass] x2[K:treble] x8 |[M:3/4][K:bass] x6 | %46
 x6 | x6 |[M:5/4] x11 |[M:3/4] x6 | x6 | x6 | x6 |] %53
V:6
 x10 | x10 |[M:3/4] x6 | x6 | x6 | x6 | x6 | x6 | x6 | x6 | x6 | x6 | x6 | x6 | x4!8va(! x2 | %15
 x2!8va)! x4 | x6 | x6 | x6 | x6 | x6 | x6 | x6 |[M:5/4] x10 | x10 | x10 ||[K:Ab][K:bass] x10 | %27
[K:treble] x10 |[M:3/4] x6 |[M:5/4] x10 |[M:3/4] x4 [Ac]2 | x6 | x6 | x6 | x6 | x6 ||[K:A] x6 | %37
 x6 | x4 x x |[K:bass] x6 |[K:treble] x6 |[K:bass] x6 |[K:treble] x6 |[M:5/4] x11 | %44
[K:bass] x2[K:treble] x8 |[M:3/4] x6 | x6 | x6 |[M:5/4] z2 [FB][c^e-] ef [c=gc']2 [Ed=e]2 x | %49
[M:3/4] x6 | x6 | x6 | x6 |] %53
V:7
 x10 | x10 |[M:3/4] x6 | x6 | x6 | x6 | x6 | x6 | x6 | x6 | x6 | x6 | x6 | x6 | x2[K:treble] x4 | %15
 x6 | x6 |[K:bass] x6 | x6 | x6 | x6 | x6 | x6 |[M:5/4] x10 | x10 | x10 ||[K:Ab] x10 | %27
 x8[K:treble] x2 |[M:3/4] x6 |[M:5/4][K:bass] x10 |[M:3/4] x6 | x6 | x6 | x6 | x6 | x6 ||[K:A] x6 | %37
 x6 | x6 | x6 | x5/2[K:treble] x7/2 |[K:bass] x6 | x5/2[K:treble] x7/2 | %43
[M:5/4][K:bass] x3 [^A,,,,^A,,,]2[K:treble] x6 |[K:bass] x2[K:treble] x8 |[M:3/4][K:bass] x6 | x6 | %47
 x6 |[M:5/4] x11 |[M:3/4] x6 | x6 | x6 | x6 |] %53

